sportPriority/img/corporative/ТЕМА 2 мы берем на себя.svg

<svg viewBox="0 0 66.33077 51.09375" xmlns="http://www.w3.org/2000/svg"><g transform="translate(0 .00001)"><path d="m42.59521 48.91954-17.35432-12.44287c-3.91914-2.81-4.12054-8.91458-.42995-13.03165l7.4848-8.34964a8.91668 8.91668 0 0 1 9.60246-2.79617l19.73306 7.4404c4.92474 1.85693 6.24464 8.30652 2.68574 13.12414l-9.86355 13.35206c-2.99996 4.06097-8.28475 5.26593-11.85824 2.70373z" fill="#584286"/><path d="m37.26416 0h-24.94727a1.12061 1.12061 0 0 0 0 2.24121h24.94678a1.01838 1.01838 0 0 1 1.01709 1.01758v38.3828a1.018 1.018 0 0 1 -1.0166 1.01758h-2.93652v-19.71482a1.12061 1.12061 0 0 0 -2.24121-.00638v25.91553h-29.84522v-41.26367h19.32036v7.88477a2.64319 2.64319 0 0 0 2.64014 2.64063h7.88477v.02246h1.0981a1.13556 1.13556 0 0 0 .81445-1.93457l-10.52589-10.52638a1.11862 1.11862 0 0 0 -.791-.32812h-20.38038a2.30509 2.30509 0 0 0 -2.30176 2.30273v41.14065a2.30487 2.30487 0 0 0 2.30176 2.30176h29.72412a2.30487 2.30487 0 0 0 2.30176-2.30176v-3.89266h2.93652a3.2618 3.2618 0 0 0 3.25784-3.25781v-38.38279a3.262 3.262 0 0 0 -3.25784-3.25874zm-13.46143 15.47459v-6.2998l6.69873 6.69921h-6.2998a.39948.39948 0 0 1 -.39893-.39944z" fill="#fff"/></g></svg>

<svg id="Слой_1" data-name="Слой 1" xmlns="http://www.w3.org/2000/svg" viewBox="0 0 66.33077 51.09375">
  <defs>
    <style>
      .cls-1 {
        fill: #584286;
      }

      .cls-2 {
        fill: #fff;
      }
    </style>
  </defs>
  <title>ТЕМА 2 мы берем на себя</title>
  <path class="cls-1" d="M42.59521,48.91954,25.24089,36.47667c-3.91914-2.81-4.12054-8.91458-.42995-13.03165l7.4848-8.34964a8.91668,8.91668,0,0,1,9.60246-2.79617l19.73306,7.4404C66.556,21.59654,67.8759,28.04613,64.317,32.86375L54.45345,46.21581C51.45349,50.27678,46.1687,51.48174,42.59521,48.91954Z" transform="translate(0 0.00001)"/>
  <path class="cls-2" d="M37.26416,0H12.31689a1.12061,1.12061,0,0,0,0,2.24121H37.26367a1.01838,1.01838,0,0,1,1.01709,1.01758V41.64159a1.018,1.018,0,0,1-1.0166,1.01758H34.32764V22.94435a1.12061,1.12061,0,0,0-2.24121-.00638V48.8535H2.24121V7.58983H21.56157v7.88477a2.64319,2.64319,0,0,0,2.64014,2.64063h7.88477v.02246h1.0981a1.13556,1.13556,0,0,0,.81445-1.93457L23.47314,5.67674a1.11862,1.11862,0,0,0-.791-.32812H2.30176A2.30509,2.30509,0,0,0,0,7.65135V48.792a2.30487,2.30487,0,0,0,2.30176,2.30176H32.02588A2.30487,2.30487,0,0,0,34.32764,48.792V44.89934h2.93652A3.2618,3.2618,0,0,0,40.522,41.64153V3.25874A3.262,3.262,0,0,0,37.26416,0ZM23.80273,15.47459V9.17479L30.50146,15.874h-6.2998a.39948.39948,0,0,1-.39893-.39944Z" transform="translate(0 0.00001)"/>
</svg>
